packages/katcn/src/icons/svg/transform-solid.svg

<svg width="24" height="25" viewBox="0 0 24 25" fill="none" xmlns="http://www.w3.org/2000/svg">
<path d="M6.4 15.712V8.91201C7.5 8.61201 8.3 7.71201 8.6 6.71201H13C13.6 6.71201 14 6.31201 14 5.71201C14 5.11201 13.6 4.71201 13 4.71201H8.6C8.2 3.31201 6.9 2.31201 5.4 2.31201C3.5 2.31201 2 3.81201 2 5.71201C2 7.21201 3 8.51201 4.4 8.91201V15.612C3 16.112 2 17.412 2 18.912C2 20.812 3.5 22.312 5.4 22.312C7.3 22.312 8.8 20.812 8.8 18.912C8.8 17.412 7.8 16.112 6.4 15.712Z" fill="black"/>
<path d="M19.6 15.712V8.91201C21 8.51201 22 7.21201 22 5.71201C22 3.81201 20.5 2.31201 18.6 2.31201C16.7 2.31201 15.2 3.81201 15.2 5.71201C15.2 7.21201 16.2 8.51201 17.6 8.91201V15.612C16.5 15.912 15.7 16.812 15.4 17.812H11C10.4 17.812 10 18.212 10 18.812C10 19.412 10.4 19.812 11 19.812H15.4C15.8 21.212 17.1 22.212 18.6 22.212C20.5 22.212 22 20.712 22 18.812C22 17.412 21 16.112 19.6 15.712Z" fill="black"/>
</svg>

<svg xmlns="http://www.w3.org/2000/svg" fill="none" viewBox="0 0 24 25"><path fill="#000" d="M6.4 15.712v-6.8c1.1-.3 1.9-1.2 2.2-2.2H13c.6 0 1-.4 1-1s-.4-1-1-1H8.6c-.4-1.4-1.7-2.4-3.2-2.4-1.9 0-3.4 1.5-3.4 3.4 0 1.5 1 2.8 2.4 3.2v6.7c-1.4.5-2.4 1.8-2.4 3.3 0 1.9 1.5 3.4 3.4 3.4s3.4-1.5 3.4-3.4c0-1.5-1-2.8-2.4-3.2m13.2 0v-6.8c1.4-.4 2.4-1.7 2.4-3.2 0-1.9-1.5-3.4-3.4-3.4s-3.4 1.5-3.4 3.4c0 1.5 1 2.8 2.4 3.2v6.7c-1.1.3-1.9 1.2-2.2 2.2H11c-.6 0-1 .4-1 1s.4 1 1 1h4.4c.4 1.4 1.7 2.4 3.2 2.4 1.9 0 3.4-1.5 3.4-3.4 0-1.4-1-2.7-2.4-3.1"/></svg>
